X:1
T:Liederkreis, Op.39
T:Im Walde
T:11. Im Walde
T:Liederkreis, Op.39
T:Robert Schumann
T:Joseph von Eichendorff
T:OpenScore (CC0)
T:OpenScore (CC0)
T:OpenScore (CC0)
C:Robert Schumann
Z:Joseph von Eichendorff
Z:OpenScore (CC0)
%%score ( 1 2 ) { ( 3 6 7 ) | ( 4 5 ) }
L:1/8
Q:1/4=90
M:6/8
K:A
V:1 treble nm="Oboe"
V:2 treble 
V:3 treble nm="Piano"
V:6 treble 
V:7 treble 
V:4 bass 
V:5 bass 
V:1
"^Ziemlich lebendig" z6 | z2 z z2!mf! A | A2 A/ A/"^dim." A3/2 B/ c | B2 A A3 |"_Im Tempo" z6 | %5
w: |Es|zog ei- ne Hoch- zeit den|Berg ent- lang,||
 z6 | z6 | z2 z z2 A | A3/2 A/"^dim." A (AB) c | (B2 A) A2 z |"_Im Tempo" z6 | z6 | z2 z z2!f! B | %13
w: ||ich|hör- te die Vö- * gel|schla- * gen;|||da|
 B3/2 B/ B B c d | d2 A A3 | z6 | z2 z z2!f! B | B2 B B c d | (d2 A) A2 z | z6 | z6 | z6 | %22
w: blitz- ten viel Rei- ter, das|Wald- horn- klang,||das|war ein lus- ti- ges|Ja- * gen!||||
 z2 z z2 C | F F F F2"^dim." ^A | G F F F3[Q:1/4=120]"_Im" |[Q:1/4=120]"_Tempo" z6 | z6 | z6 | %28
w: Und|eh' ich's ge- dacht, war|al- les ver- hallt.||||
 z2 z z2!p! ^D | G2 G"^dim." G ^A B | (^A2 G) G2[Q:1/4=120]"_Im Tempo" z | z6 |!p! E3 E2 E | %33
w: Die|Nacht be- de- cket die|Rund- * de,||nur von den|
!<(! E3 =A2 E!<)! | E3 E2 E |!<(! (E3!<)! B3) | z2 z E2 E | E3 c2 c | B3 c3 | (d6 | c3 =c3) | %41
w: Ber- gen noch|rau- schet der|Wald, _|und mich|schau- ert's im|Her- zens-|grund-||
 B2 z z2 z | z2 z B2 ^c | d6 | (c3 c2) c | (B6 | G3-) G2 A | A6- |!>(! (A3- A3)!>)! | A2 z |] %50
w: de,|und mich|schau-|ert's _ im|Her-|* * zens|grun-||de.|
V:2
 x6 | x6 | x6 | x6 | x6 | x6 | x6 | x6 | x6 | x6 | x6 | x6 | x6 | x6 | x6 | x6 | x6 | x6 | x6 | %19
 x6 | x6 | x6 | x6 | x6 | x6 | x6 | x6 | x6 | x6 | x6 | x6 | x6 | x6 | x6 | x6 | x6 | x6 | x6 | %38
 x6 | x6 | x6 | x6 | x6 | x6 | x6 | x6 | x6 | x6 | x3 A2 A, | A,2 x |] %50
V:3
 z2!p! E E2 [CE] |!<(! [CE]2 [A,CE] [A,CE]2 [A,CE]!<)! | [A,CE]2 [A,CE]"^dim." [A,CE]2 [A,CE] | %3
 [A,CE]2 [A,CE] E2 F | !>!F6- | F dc [GB]2 .A | .[CA]2!<(! E E2 [CE] | %7
 [CE]2 [A,CE]!<)! [A,CE]2 [A,CE] | [A,CE]2!>(! [A,CE] [A,CE]2 [A,CE]!>)! | [A,CE]2 [A,CE] E2 F | %10
 !>!F6- | F dc .[GB]2 .A | .[CA]2 .[CA] .[CA]2!f! [C=GB] | B3- B2 A | A3- A2 A- | %15
!<(! [CGA][Bc=g][Acf]!<)! [=Gce]2 [FAd] | [FAd]2 [A,FA] [A,FA]2 [B,=GB] | [=GB]3 [GB] z A | %18
 [FA]3 [FA] z [C=GA]- | [CGA][Bc=g][Acf] [=Gce]2 [FAd] | [FAd]2[K:bass]!>(! D D2 C | %21
 C2 [^A,C] [A,C]2 [F,A,C]!>)! | [F,^A,C]2 [F,A,C] [F,A,C]2 [F,A,C] |!pp!"^dim." [F,^A,C]6- | %24
 [F,A,-C-]6 | (^D6 | [G,B,D])[K:treble]B[C^A] .[B,^DG]2 .[^A,D^^F] | %27
 .[B,^DG]2 [B,D]!<(! [B,D]2 [B,D] | [B,^D]2 [B,D] [B,D]2!<)! [B,D] |"^dim." [B,-^D]6 | %30
 [B,-D]3 D2!p! E | E2 E E3- | E2 E E3- | E2 E E3- | E2 E E3- | E2!<(! E E3-!<)! | %36
!<(! E2 E E2!<)! E | E3!<(! ([A,CE]3 | [G,B,E]3!<)! [A,CE]3 | [G,DE-]6 |!>(! E6!>)! | [B,E]6-) | %42
 E6 |[K:bass]!pp! D6 | ([E,A,-C]6 |!>(! [A,B,-]6) | B,6!>)! | [D,F,A,]6- | [D,F,A,-]6 | %49
 [C,E,A,]2 z |] %50
V:4
 z2!ped! E,!ped-up! E,2 E, | E,2 E, E,2 [A,,E,] | E,2 E, E,2 E, | E,2 E, E,2 E, | E,2 E, E,2 E, | %5
 E,2 E, [E,E]2 .[=A,E] | .[A,E]2 E, E,2 E, | E,2 E, E,2 [A,,E,] | E,2 E, E,2 E, | E,2 E, E,2 E, | %10
 E,2 E, E,2 E, | E,2 E, .[E,E]2 .[=A,E] | .[A,E]2 .[A,E] .[A,E]2 [=G,,D,] | D,2 D, D,2!f! D, | %14
 D,2 D, D,2 A,,- | A,,6 | D,2 D, D,2!f! D, |!f! D,2 D, D, z D, | D,2 D, D, z A,,- | A,,6 | %20
 [D,,D,]2 D, D,2 C, | C,2 C, C,2 C, | C,2 [F,,C,] [F,,C,]2 [F,,C,] | C,2 C, C,2 C, | %24
 C,2 C, C,2 ^D, | ^D,6- | D, z [C,,C,] .[^D,,^D,]2 .[D,,D,] | .[G,,^D,]2 D, D,2 D, | %28
 ^D,2 [G,,D,] [G,,D,]2 [G,,D,] | ^D,2 D, D,2 D, | ^D,2 D, D,2 E, | E,3- E,3- | E,2 E, E,3- | %33
 E,2 E, E,3- | E,2 E, E,3- | E,2 E, E,3 | E,2 E, E,2 E, | E,3!p! E,3 | E,3 E,3 | E,6- | E,6 | %41
 [E,,E,]6- | [E,,E,]6 | [B,,,B,,]6 | [C,,C,]3- [C,,C,]2 [D,,D,] | [E,,E,]6- | [E,,E,]6 | %47
 [A,,,A,,]6- | [A,,,A,,]6- | [A,,,A,,]2 z |] %50
V:5
 x6 | x6 | A,,6- | A,,2 x4 | x6 | x6 | x6 | x6 | A,,6- | A,,2 x4 | x6 | x6 | x6 | =G,,3- G,,2 D,, | %14
 D,,3- D,,2 D,, | D,,2 D,, D,,2 [D,,D,] | D,,3- D,,2 =G,, | =G,,3 G,, x D,, | D,,3 D,, x D,, | %19
 D,,2 D,, D,,2 [D,,D,] | x6 | x6 | x6 | F,,6- | F,,6- | F,,2 ^^F,, F,,2 F,, | G,, x5 | x6 | x6 | %29
 G,,6- | G,,6- | G,,2 E,, E,,2 F,, | F,,2 G,, G,,2 A,, | A,,2 F,, F,,2 G,, | G,,2 A,, A,,2 B,, | %35
 B,,2 G,, G,,2 A,, | A,,2 B,, B,,2 C, | C,3 A,,3 | D,3 C,3 | B,,6 | A,,6 | x6 | x6 | x6 | x6 | x6 | %46
 x6 | x6 | x6 | x3 |] %50
V:6
 x6 | x6 | x6 | x3 [A,C]3- | [A,C]2!<(! [^A,C] [A,C]2 [B,D]!<)! | [B,D] FE D2 .C | x6 | x6 | x6 | %9
 x3 [A,C]3- | [A,C]2!<(! [^A,C] [A,C]2 [B,D]!<)! | [B,D] FE D2 .C | x6 | %13
 [B,=G]2 [B,G] [B,G]2 [A,F] | [A,F]2 [A,F] [A,F]2 [C=G]- | x6 | x6 | (B,D)D B, x [A,F] | %18
 (A,D)D A, x2 | x6 | x2[K:bass] x4 | x6 | x6 | x6 | x5!p! ^D | %25
 [A,C]2!<(! [^A,C] [A,C]2 [G,B,]!<)! | x[K:treble] x5 | x6 | x6 | x6 | x3 B,3- | B,2 G, G,2 =A, | %32
 A,2 B, B,2 C | C2 A, A,2 B, | B,2 C C2 D | D2 B, B,2 C | C2 D D2 E | x6 | x6 | x6 | C3 =C3 | %41
 (G,6 | B,3-) B,2 ^C |[K:bass] F,3- F,2 ^G, | x6 | x6 | G,3- G,2 A, | x6 | x6 | x3 |] %50
V:7
 x6 | x6 | x6 | x6 | x6 | x6 | x6 | x6 | x6 | x6 | x6 | x6 | x6 | x6 | x6 | x6 | x6 | x6 | x6 | %19
 x6 | x2[K:bass] x4 | x6 | x6 | x6 | x6 | x6 | x[K:treble] x5 | x6 | x6 | x6 | x6 | x6 | x6 | x6 | %34
 x6 | x6 | x6 | x6 | x6 | x6 | A,6 | x6 | =G,6 |[K:bass] x6 | x6 | x6 | x6 | x6 | x6 | x3 |] %50

